X: 4848
T: Brady's
R: slip jig
M: 9/8
K: Dmixolydian
M:7/8
A2 AG ABc|~E2 DA DEG|A2 ~A2 Bcd|~e2 BA BAG|
~A2 AG ABc|~E2 DA DEG|A2 GE GAE|D/D/D DA DEG:|
A2 ~A2 Bcd|eA fA gAA|aB gf gae|d2 Bd BAG|
A2 ~A2 Bcd|~e2 ~f2 ~g2e|~a2 gf def|{=f}e4 egb|
a2 gf gae|d2 d2 efg|a2 gf gae|d2 Bd BAG|
A2 ~A2 Bcd|~e2 BA BAG|A2 GE GAE|D/D/D DA DEG||

